packages/landing-ui/public/start-rocket.svg

<svg width="72" height="86" viewBox="0 0 72 86" fill="none" xmlns="http://www.w3.org/2000/svg">
<path d="M50.146 60.2106V57.9181C50.1397 53.7178 51.8208 49.6917 54.8115 46.7423C60.0933 41.6389 63.0651 34.6018 63.0407 27.2576C63.0561 14.8596 54.6912 4.0175 42.6954 0.885477C30.6997 -2.24655 18.1031 3.12274 12.0552 13.946C6.00732 24.7685 8.0368 38.311 16.9914 46.8857C19.9248 49.8009 21.5492 53.7822 21.4911 57.9181V60.2106C18.697 60.2037 16.3073 62.2184 15.8413 64.9734C15.3754 67.7283 16.9691 70.4168 19.61 71.3298C18.4242 73.0864 18.3039 75.3538 19.2973 77.2259C20.2914 79.0972 22.2376 80.2676 24.3566 80.269H25.9328C26.6184 83.6018 29.5503 85.9951 32.9531 86H38.684C42.0868 85.9951 45.0195 83.6018 45.7043 80.269H47.2805C49.3995 80.2676 51.3451 79.0965 52.3392 77.2252C53.3326 75.3531 53.2122 73.0857 52.0258 71.3298C54.6667 70.4168 56.2603 67.729 55.7951 64.9741C55.3292 62.2191 52.9401 60.2043 50.146 60.2106ZM18.9727 44.8199C13.6831 39.7661 10.952 32.5982 11.5396 25.3057C12.5568 13.748 21.5149 4.47363 33.0307 3.05558C43.3782 1.86139 53.3396 7.38388 57.8085 16.7925C62.2781 26.2012 60.2654 37.4113 52.8023 44.6778C49.2603 48.1716 47.27 52.9427 47.2805 57.9181V60.2106H24.3566V57.9181C24.4119 53.0029 22.4692 48.2751 18.9727 44.8199ZM38.684 83.1345H32.9531C31.1384 83.1268 29.5237 81.9802 28.9186 80.269H42.7185C42.1141 81.9802 40.4995 83.1268 38.684 83.1345ZM47.2805 77.4035H24.3566C22.7742 77.4035 21.4911 76.1205 21.4911 74.5381C21.4911 72.9549 22.7742 71.6726 24.3566 71.6726H47.2805C48.863 71.6726 50.146 72.9549 50.146 74.5381C50.146 76.1205 48.863 77.4035 47.2805 77.4035ZM50.146 68.8071H21.4911C19.9087 68.8071 18.6257 67.5241 18.6257 65.9416C18.6257 64.3585 19.9087 63.0761 21.4911 63.0761H50.146C51.7284 63.0761 53.0115 64.3585 53.0115 65.9416C53.0115 67.5241 51.7284 68.8071 50.146 68.8071Z" fill="#687C94"/>
<path d="M65.9061 25.8248H71.6371V28.6903H65.9061V25.8248Z" fill="#F6376D"/>
<path d="M61.1595 10.9713L66.1224 8.10583L67.5551 10.5879L62.5916 13.4527L61.1595 10.9713Z" fill="#F6376D"/>
<path d="M4.08203 10.5901L5.51477 8.10864L10.4776 10.9741L9.04486 13.4555L4.08203 10.5901Z" fill="#F6376D"/>
<path d="M0 25.8248H5.73097V28.6903H0V25.8248Z" fill="#F6376D"/>
<path d="M4.08411 43.9244L9.04763 41.0589L10.4797 43.541L5.51615 46.4058L4.08411 43.9244Z" fill="#F6376D"/>
<path d="M61.1595 43.5424L62.5923 41.061L67.5551 43.9265L66.1224 46.4079L61.1595 43.5424Z" fill="#F6376D"/>
<path d="M29.9441 40.7924L30.6892 39.3009L31.6022 42.0376C31.7959 42.6197 32.3395 43.0143 32.953 43.0178H38.684C39.3003 43.0171 39.8474 42.6225 40.0426 42.0376L40.9548 39.3009L41.6999 40.7924C41.9427 41.2779 42.4394 41.585 42.9822 41.585H48.0787C49.0175 41.5843 49.8969 41.124 50.4328 40.3524C50.9679 39.5807 51.0911 38.5957 50.7623 37.7163L47.887 30.051C47.3245 28.5651 45.9904 27.5081 44.415 27.3003V18.9256C44.4213 17.4915 43.991 16.0895 43.1816 14.9058C38.889 8.63196 36.5783 8.63196 35.8185 8.63196C35.0595 8.63196 32.7481 8.63196 28.4575 14.9044C27.6474 16.0881 27.2165 17.4908 27.2221 18.9256V27.3003C25.648 27.5074 24.3146 28.5623 23.7508 30.0468L20.8755 37.7163C20.5467 38.5957 20.6698 39.5807 21.205 40.3524C21.7402 41.124 22.6195 41.5843 23.5591 41.585H28.6548C29.2005 41.5878 29.7007 41.2807 29.9441 40.7924ZM33.9863 40.1523L33.5078 38.7195H38.1299L37.6514 40.1523H33.9863ZM45.2034 31.0528L48.0787 38.7195H43.8679L43.7434 38.4698C44.1561 38.2172 44.4094 37.7702 44.415 37.2868V30.2504C44.7767 30.398 45.0621 30.6883 45.2034 31.0528ZM30.0876 18.9256C30.0834 18.0693 30.3387 17.2312 30.8214 16.5232C33.5407 12.5475 35.2798 11.4974 35.8185 11.4974C36.3572 11.4974 38.0971 12.5475 40.8177 16.5246C41.299 17.2326 41.5544 18.07 41.5495 18.9256V35.8541H37.2513V27.2576H34.3858V35.8541H30.0876V18.9256ZM23.5591 38.7195L26.4343 31.0514C26.5764 30.6876 26.8611 30.398 27.2221 30.2504V37.2868C27.2277 37.7702 27.4816 38.2172 27.8944 38.4698L27.7698 38.7195H23.5591Z" fill="#F6376D"/>
<path d="M34.3859 48.7487H37.2513V57.3452H34.3859V48.7487Z" fill="#F6376D"/>
<path d="M40.1168 45.8832H42.9823V54.4797H40.1168V45.8832Z" fill="#687C94"/>
<path d="M28.6548 45.8832H31.5203V54.4797H28.6548V45.8832Z" fill="#687C94"/>
</svg>

<svg width="72" height="86" fill="none" xmlns="http://www.w3.org/2000/svg"><path d="M50.146 60.21v-2.292a15.663 15.663 0 014.666-11.176 26.97 26.97 0 008.229-19.484C63.056 14.86 54.69 4.018 42.695.885a27.222 27.222 0 00-30.64 13.061 27.221 27.221 0 004.936 32.94 15.252 15.252 0 014.5 11.032v2.293A5.716 5.716 0 0019.61 71.33a5.734 5.734 0 00-.313 5.896 5.734 5.734 0 005.06 3.043h1.576A7.178 7.178 0 0032.953 86h5.731a7.177 7.177 0 007.02-5.731h1.577a5.732 5.732 0 004.745-8.94 5.717 5.717 0 00-1.88-11.118zM18.973 44.82a24.29 24.29 0 01-7.433-19.514c1.017-11.558 9.975-20.832 21.49-22.25a24.342 24.342 0 0119.772 41.622 18.544 18.544 0 00-5.521 13.24v2.293H24.357v-2.293a18.128 18.128 0 00-5.384-13.098zm19.711 38.315h-5.73a4.299 4.299 0 01-4.035-2.866h13.8a4.297 4.297 0 01-4.035 2.865zm8.597-5.732H24.357a2.866 2.866 0 010-5.73H47.28a2.865 2.865 0 110 5.73zm2.865-8.596H21.491a2.866 2.866 0 010-5.73h28.655a2.865 2.865 0 110 5.73z" fill="#687C94"/><path d="M65.906 25.825h5.731v2.865h-5.73v-2.865zM61.16 10.971l4.962-2.865 1.433 2.482-4.963 2.865-1.432-2.482zM4.082 10.59L5.515 8.11l4.963 2.865-1.433 2.482-4.963-2.866zM0 25.825h5.731v2.865H0v-2.865zM4.084 43.924l4.964-2.865 1.432 2.482-4.964 2.865-1.432-2.482zM61.16 43.542l1.432-2.481 4.963 2.865-1.433 2.482-4.962-2.866zM29.944 40.792l.745-1.491.913 2.737c.194.582.738.976 1.351.98h5.731c.616 0 1.163-.395 1.359-.98l.912-2.737.745 1.491c.243.486.74.793 1.282.793h5.097a2.865 2.865 0 002.684-3.869l-2.876-7.665a4.316 4.316 0 00-3.472-2.75v-8.375a7.067 7.067 0 00-1.233-4.02c-4.293-6.274-6.604-6.274-7.364-6.274-.758 0-3.07 0-7.36 6.272a7.071 7.071 0 00-1.236 4.022V27.3a4.316 4.316 0 00-3.471 2.747l-2.876 7.67a2.865 2.865 0 002.684 3.868h5.096a1.432 1.432 0 001.29-.793zm4.042-.64l-.478-1.433h4.622l-.479 1.433h-3.665zm11.217-9.1l2.876 7.667h-4.211l-.125-.25c.413-.252.666-.699.672-1.182V30.25c.362.148.647.438.788.803zM30.088 18.927a4.228 4.228 0 01.733-2.403c2.72-3.976 4.459-5.026 4.997-5.026.54 0 2.28 1.05 5 5.028.481.708.736 1.545.732 2.4v16.93H37.25v-8.597h-2.865v8.596h-4.298V18.926zm-6.529 19.793l2.875-7.668c.142-.363.427-.653.788-.8v7.036c.006.483.26.93.672 1.183l-.124.25h-4.21zM34.386 48.749h2.865v8.596h-2.865V48.75z" fill="#F6376D"/><path d="M40.117 45.883h2.865v8.597h-2.865v-8.597zM28.655 45.883h2.865v8.597h-2.865v-8.597z" fill="#687C94"/></svg>
